X:1070
T:untitled
A:Wyresdale, Lancashire
B:E and J Winder, 1835-41
L:1/16
M:C|
N:(the Wind that shakes the barley)
O:England
Z:Richard Robinson 
%%TUNEURL: http://www.leeds.ac.uk/music/Info/RRTuneBk/gettune/00001117.html
%%ID:00001117
K:C
G2GA GECE | F2AG ABcA | G2GA GECz/ |fedc A2c2 ::
e2ec f2fd | e2ec dBGB | e2ec f2fd | gedc A2c2 |]
%%newpage
%page 89
